src/topics/icons/ramda.svg

<svg height="306" preserveAspectRatio="xMidYMid" viewBox="0 0 256 306" width="256" xmlns="http://www.w3.org/2000/svg"><path d="m21.9714394 25.1152108c13.8926927-15.0939406 33.8177388-24.7430946 54.4348081-25.05646361 15.7729067-.62673801 31.7155555 3.77348514 44.8117685 12.61310261 16.934983 11.0854286 29.300002 28.8168917 34.11805 48.4416258 1.031507 3.7473711.744252 8.3434498 3.982398 11.0723716 6.149867 1.4754458 12.573932.4047683 18.789084 1.540731 15.851249 3.7995992 30.40985 12.6522737 41.168853 24.886722 2.585294 2.8203208 4.648307 6.0845818 6.123753 9.6099828 8.108423 16.699957 9.388013 35.515154 12.75673 53.507758 3.120633 24.116357 7.377229 48.062972 11.359626 72.048758 3.629858 22.196971 7.377229 44.642027 6.293495 67.204595-5.013905-1.867157-9.348842-5.705927-11.085429-10.837345-2.493895-8.134537-3.277318-16.647728-4.308824-25.056463-.391711-3.551516-3.342603-6.959404-7.155259-6.567692-5.536186-.0914-7.951739 6.907175-6.280437 11.38574 2.833378 6.672149 7.977853 11.947194 12.769787 17.235296 2.624465 2.794207 3.629858 6.606863 5.718984 9.75361 2.702808 3.238146 6.593807 5.079189 10.406463 6.685206-1.357933.809536-2.467781 2.350267-4.243539 2.11524-5.758155.274198-11.516311-.039171-17.274466.052229-7.076917-.078343-14.232176.796479-21.230751-.678967-9.792781-24.325269-21.034894-48.036857-31.728612-71.983472-5.248931-12.025536-10.602318-24.0119-16.073218-35.93298-6.149867-13.226783-11.424912-26.845278-17.953433-39.889263-.966221-4.569965-3.655972-8.447906-5.418673-12.704502-2.702807-6.672148-5.718984-13.239841-9.166043-19.559449-17.117782 31.963639-33.5043699 64.305932-50.0737562 96.543769-13.9318639 27.746214-29.1172037 54.891804-41.9000478 83.212528-12.9917568-.091399-25.9704566-.391711-38.96221336-.48311 33.67411136-63.404996 66.36894446-127.319217 99.48160336-191.024525 2.898663-5.679813 6.04541-11.25517 8.291221-17.2352951-6.39795 1.8540999-12.221391 5.4186721-18.8674254 6.4893501-13.7360081 2.794207-27.7592713-.130571-40.6204576-5.1183607 16.2168461-14.8850279 39.3408675-20.4734419 60.898044-19.4027644-1.814929-5.8103837-4.426337-11.3987977-8.199823-16.2037892 4.478566-8.1345371 11.672996-14.0624342 18.658514-19.9381031-10.119208-1.1881908-18.802141 5.6145281-25.0042359 12.8611864-3.8518274-2.6375225-7.9256245-4.9225049-12.1430491-6.8941182.6920232-7.3641717 3.9301697-14.0102061 7.3511147-20.4342707-8.1867654 1.9324422-13.030928 9.8319526-15.3942526 17.3528088-5.1314175-.7703655-10.3281202-.8487077-15.5117659-.5353387-.9009359-5.8103837-.940107-11.6991097-.4047683-17.5486645-6.4371217 3.8909985-6.241266 12.3780758-6.2934942 18.9849391-4.8311055 1.7627007-9.4402414 4.06074-13.8535216 6.6852055-2.6114084-4.0085119-4.5307935-8.382621-6.4632358-12.743673-3.1989752 5.6275851-.7703654 12.2475054 1.5146169 17.7445201-2.6375225 3.8257133-5.0139041 7.8211681-7.155259 11.9471934-3.420945-1.7235295-6.7374337-3.6298577-10.0930935-5.4839576.92705 4.8049914 4.0607401 8.6568188 8.1084231 11.2290561-1.1229056 5.0269612-1.5929591 10.1453216-1.6321302 15.2767391-3.420945.313369-6.8549471.5222817-10.2889491.8487078 2.807264 3.0161767 6.854947 3.7212569 10.7590026 4.047683 1.0053922 4.1129682 2.2196971 8.1867658 3.7081999 12.1561058-2.1282978 2.07607-4.2696527 4.126026-6.3065513 6.293495 2.9117204-.430883 5.7581555-1.135963 8.5523625-2.023842 3.6037436 3.381774 8.0300809 5.614528 12.2736195 8.069252-.2089127.992335-.639795 2.977006-.8487077 3.969341 1.4232176-.92705 2.8333781-1.8541 4.2565957-2.78115 8.0170238 2.311096 16.7521849 3.447059 24.8083798.652852 4.9486189-1.553788 8.9571308-5.092246 13.8404645-6.776605-1.8279859 8.513191-8.9701879 14.937256-16.5563293 18.580171-11.0854286 5.248931-23.9857861 3.786542-35.149557-.404768-7.6383696-2.206641-13.7882364-7.651427-18.8674257-13.55321-8.14759423-9.244386-13.56626667-20.9957236-14.53248777-33.3215712-1.46238871-22.1578003 6.80271888-44.6420266 21.80526017-60.924158zm162.6776866 121.0779502c-.79648 4.139083-.639795 8.539306.731194 12.534761 3.629858 10.027808 14.219119 14.689172 23.032622 19.233022-.652852-2.219697-1.292647-4.439394-1.919385-6.659091-11.411855-1.162077-17.862034-17.457265-8.931017-25.38289-1.096791-2.55918-2.20664-5.11836-3.303431-7.690597-3.695143 1.8541-8.34345 3.603743-9.609983 7.964795zm14.832799 6.93329c-.92705 4.648307-.013057 10.354234 5.157532 11.999421-1.240419-4.152139-2.154412-8.682933-5.157532-11.999421z" fill="#11100e"/></svg>

<?xml version="1.0" encoding="UTF-8" standalone="no"?>
<svg width="256px" height="306px" viewBox="0 0 256 306" version="1.1" xmlns="http://www.w3.org/2000/svg" xmlns:xlink="http://www.w3.org/1999/xlink" preserveAspectRatio="xMidYMid">
    <g>
        <path d="M21.9714394,25.1152108 C35.8641321,10.0212702 55.7891782,0.3721162 76.4062475,0.0587471918 C92.1791542,-0.567990824 108.121803,3.83223233 121.218016,12.6718498 C138.152999,23.7572784 150.518018,41.4887415 155.336066,61.1134756 C156.367573,64.8608467 156.080318,69.4569254 159.318464,72.1858472 C165.468331,73.661293 171.892396,72.5906155 178.107548,73.7265782 C193.958797,77.5261774 208.517398,86.3788519 219.276401,98.6133002 C221.861695,101.433621 223.924708,104.697882 225.400154,108.223283 C233.508577,124.92324 234.788167,143.738437 238.156884,161.731041 C241.277517,185.847398 245.534113,209.794013 249.51651,233.779799 C253.146368,255.97677 256.893739,278.421826 255.810005,300.984394 C250.7961,299.117237 246.461163,295.278467 244.724576,290.147049 C242.230681,282.012512 241.447258,273.499321 240.415752,265.090586 C240.024041,261.53907 237.073149,258.131182 233.260493,258.522894 C227.724307,258.431494 225.308754,265.430069 226.980056,269.908634 C229.813434,276.580783 234.957909,281.855828 239.749843,287.14393 C242.374308,289.938137 243.379701,293.750793 245.468827,296.89754 C248.171635,300.135686 252.062634,301.976729 255.87529,303.582746 C254.517357,304.392282 253.407509,305.933013 251.631751,305.697986 C245.873596,305.972184 240.11544,305.658815 234.357285,305.750215 C227.280368,305.671872 220.125109,306.546694 213.126534,305.071248 C203.333753,280.745979 192.09164,257.034391 181.397922,233.087776 C176.148991,221.06224 170.795604,209.075876 165.324704,197.154796 C159.174837,183.928013 153.899792,170.309518 147.371271,157.265533 C146.40505,152.695568 143.715299,148.817627 141.952598,144.561031 C139.249791,137.888883 136.233614,131.32119 132.786555,125.001582 C115.668773,156.965221 99.2821851,189.307514 82.7127988,221.545351 C68.7809349,249.291565 53.5955951,276.437155 40.812751,304.757879 C27.8209942,304.66648 14.8422944,304.366168 1.85053764,304.274769 C35.524649,240.869773 68.2194821,176.955552 101.332141,113.250244 C104.230804,107.570431 107.377551,101.995074 109.623362,96.0149489 C103.225412,97.8690488 97.401971,101.433621 90.7559366,102.504299 C77.0199285,105.298506 62.9966653,102.373728 50.135479,97.3859383 C66.3523251,82.5009104 89.4763465,76.9124964 111.033523,77.9831739 C109.218594,72.1727902 106.607186,66.5843762 102.8337,61.7793847 C107.312266,53.6448476 114.506696,47.7169505 121.492214,41.8412816 C111.373006,40.6530908 102.690073,47.4558097 96.4879781,54.702468 C92.6361507,52.0649455 88.5623536,49.7799631 84.344929,47.8083498 C85.0369522,40.4441781 88.2750987,33.7981437 91.6960437,27.3740791 C83.5092783,29.3065213 78.6651157,37.2060317 76.3017911,44.7268879 C71.1703736,43.9565224 65.9736709,43.8781802 60.7900252,44.1915492 C59.8890893,38.3811655 59.8499182,32.4924395 60.3852569,26.6428847 C53.9481352,30.5338832 54.1439909,39.0209605 54.0917627,45.6278238 C49.2606572,47.3905245 44.6515213,49.6885638 40.2382411,52.3130293 C37.6268327,48.3045174 35.7074476,43.9304083 33.7750053,39.5693563 C30.5760301,45.1969414 33.0046399,51.8168617 35.2896222,57.3138764 C32.6520997,61.1395897 30.2757181,65.1350445 28.1343632,69.2610698 C24.7134182,67.5375403 21.3969295,65.6312121 18.0412697,63.7771122 C18.9683197,68.5821036 22.1020098,72.433931 26.1496928,75.0061683 C25.0267872,80.0331295 24.5567337,85.1514899 24.5175626,90.2829074 C21.0966176,90.5962764 17.6626155,90.8051891 14.2286135,91.1316152 C17.0358775,94.1477919 21.0835605,94.8528721 24.9876161,95.1792982 C25.9930083,99.2922664 27.2073132,103.366064 28.695816,107.335404 C26.5675182,109.411474 24.4261633,111.46143 22.3892647,113.628899 C25.3009851,113.198016 28.1474202,112.492936 30.9416272,111.605057 C34.5453708,114.986831 38.9717081,117.219585 43.2152467,119.674309 C43.006334,120.666644 42.5754517,122.651315 42.366539,123.64365 C43.7897566,122.7166 45.1999171,121.78955 46.6231347,120.8625 C54.6401585,123.173596 63.3753196,124.309559 71.4315145,121.515352 C76.3801334,119.961564 80.3886453,116.423106 85.271979,114.738747 C83.4439931,123.251938 76.3017911,129.676003 68.7156497,133.318918 C57.6302211,138.567849 44.7298636,137.10546 33.5660927,132.91415 C25.9277231,130.707509 19.7778563,125.262723 14.698667,119.36094 C6.55107277,110.116554 1.13240033,98.3652164 0.166179227,86.0393688 C-1.29620948,63.8815685 6.96889811,41.3973422 21.9714394,25.1152108 L21.9714394,25.1152108 Z M184.649126,146.193161 C183.852646,150.332244 184.009331,154.732467 185.38032,158.727922 C189.010178,168.75573 199.599439,173.417094 208.412942,177.960944 C207.76009,175.741247 207.120295,173.52155 206.493557,171.301853 C195.081702,170.139776 188.631523,153.844588 197.56254,145.918963 C196.465749,143.359783 195.3559,140.800603 194.259109,138.228366 C190.563966,140.082466 185.915659,141.832109 184.649126,146.193161 L184.649126,146.193161 Z M199.481925,153.126451 C198.554875,157.774758 199.468868,163.480685 204.639457,165.125872 C203.399038,160.973733 202.485045,156.442939 199.481925,153.126451 L199.481925,153.126451 Z" fill="#11100E"></path>
    </g>
</svg>
